X: 1
T: Jig Of Beer
M: 6/8
L: 1/8
R: jig
K: Dmaj
fAA fAA|gAA gAA|aaa age|dcd def|
fAA fAA|gAA gAA|aaa age|dce d3:|
cde egf|afe edc|ddd def|g2f e2d|
cde efg|afe edc|def gag|edc d3:|
